source/img/year/number-icon_year-5.svg

<svg width="186" height="212" viewBox="0 0 186 212" xmlns="http://www.w3.org/2000/svg"><path d="M91.804 209.634c-30.91 0-57.511-10.397-79.804-31.191l31.191-36.53c16.86 14.237 32.783 21.356 47.77 21.356 8.992 0 16.017-2.061 21.075-6.182 5.245-4.309 7.868-10.116 7.868-17.422 0-6.931-2.716-12.458-8.149-16.579-5.245-4.121-12.177-6.182-20.794-6.182-10.116 0-20.607 3.278-31.472 9.835l-32.315-17.984L32.794 9h131.508v44.96H75.787l-1.686 29.786c9.929-4.683 20.42-7.025 31.472-7.025 19.108 0 35.125 5.433 48.051 16.298 12.926 10.678 19.389 26.227 19.389 46.646 0 21.543-7.493 38.591-22.48 51.142-14.799 12.551-34.376 18.827-58.729 18.827z"/></svg>

<svg width="186" height="212" viewBox="0 0 186 212"  xmlns="http://www.w3.org/2000/svg">

<path d="M91.804 209.634C60.894 209.634 34.2927 199.237 12 178.443L43.191 141.913C60.051 156.15 75.9743 163.269 90.961 163.269C99.953 163.269 106.978 161.208 112.036 157.087C117.281 152.778 119.904 146.971 119.904 139.665C119.904 132.734 117.188 127.207 111.755 123.086C106.51 118.965 99.5783 116.904 90.961 116.904C80.845 116.904 70.3543 120.182 59.489 126.739L27.174 108.755L32.794 9H164.302V53.96H75.787L74.101 83.746C84.0297 79.0627 94.5203 76.721 105.573 76.721C124.681 76.721 140.698 82.1537 153.624 93.019C166.55 103.697 173.013 119.246 173.013 139.665C173.013 161.208 165.52 178.256 150.533 190.807C135.734 203.358 116.157 209.634 91.804 209.634Z"/>
</svg>
